X:1
T:Sonata No. 8 
C:L.V. Beethoven
%%score { ( 1 2 ) | ( 3 ) }
%%measurenb 0
L:1/16
Q:1/4=31
M:2/4
K:Ab
V:1 treble nm="Piano"
V:2 treble 
V:3 bass 
V:1
L:1/16
 [K:bass](C4 B,4 | E6 D2) | (C2E2A2B2) | (E6 =E2 | F4) (B,3C/_D/) | (_E4 =A,4 |  D4) (.C.B,.A,.G,) | ([G,B,]4 A,2)[K:treble] (3.C.E.A |
(c4 B4 | e6 d2) | (c2e2a2b2) | (e6 =e2 |  f4) (B3c/_d/) | (_e4 =A4 | d4) (.c.B.A.G) | (B4 A2) z2 |]
V:2
L:1/16
 [K:bass] A,E,A,E, G,E,G,E, | A,E,A,E, B,E,B,E, | A,E,B,E, CA,=DA, | G,B,G,B, G,B,G,B, |  G,B,G,B, G,E,G,E, | A,E,A,E, E,C,E,C, | F,D,F,D, D,D,D,D, | (D,E,D,E,) (3.C,.E,.A,[K:treble] x2 |  CECE B,EB,E | EAEA EBEB | AEBE cA=dA | GBGB GBGB | GBGB GEGE | AEAE ECEC | FDFD DDDD |  DEDE C2 x2 |]
V:3
L:1/16
 (A,,4 D,4 | C,4 G,,4) | (A,,2G,,2F,,2F,2) | (E,4 E,,4 | D,,4 D,4) | (C,4 F,,4 | B,,,4 E,,4) |  A,,,2A,,2 A,,,2 z2 | A,E,A,E, G,E,G,E, | A,E,A,E, G,E,G,E, | A,E,G,E, F,A,,F,A,, |  (E,,G,,B,,E, G,B,G,B,) | (D,,G,,B,,D, G,B,G,D,) | C,E,C,E, C,F,C,F, | D,F,D,F, B,,E,B,,E, |  z E,A,E, A,2 z2 |]